X: 72
T:Missa L'homme arm\'e super voces musicales / Gloria
N: Derived from Jos0603b-Missa_Lhomme_arme_super_voces_musicales-Gloria.krn
C: Josquin des Prez
%%abc-version 2.0
%%abcx-abcm2ps-target-version 5.9.1 (29 Sep 2008)
%%abc-creator hum2abc beta
%%abcx-conversion-date 2019/02/12 16:15:41
%%abc-edited-by Jesse Rodin
%%abc-edited-by Jesse Rodin; Victoria Chang 2011/05/11
%%abcx-initial-encoding-date 2011/05/11/
%%humdrum-veritas 1144961606
%%humdrum-veritas-data 4110968656
%%linebreak <none>
%%barnumbers 0
L: 1/4
M: 3/1
Q: 1/2=120
%%staves [1 2 3 4]
V: 1 clef=treble
V: 2 clef=treble-8
V: 3 clef=treble-8
V: 4 clef=bass
K: C
[V:1] D8F4 | 
[V:2] z12 | 
[V:3] z12 :
[V:4] D,8D,4 | 
[V:1] E2D4C2B,4 | 
[V:2] z12 | 
[V:3] z12 :
[V:4] G,8G,4 | 
[V:1] A,4z4z4 | 
[V:2] z2d2ed^cB^c2d^c | 
[V:3] z12 | 
[V:4] F,4E,8 | 
[V:1] z2A3G/A/_BA2G/A/BA- | 
[V:2] d4z2d2A2d2 | 
[V:3] z12 :
[V:4] D,8z4 | 
[V:1] AG/F/E2z6A2- | 
[V:2] c3B/A/cdef2e/d/c2 | 
[V:3] z12 :
[V:4] A,4A,4A,4 | 
[V:1] AG/A/_BA2G/A/BA2G/F/E2 | 
[V:2] f2df2edf2e/d/^c2 | 
[V:3] z12 | 
[V:4] D,8z4 | 
[V:1] z2F4F2F2F2 | 
[V:2] d4z2d2d2d2 | 
[V:3] D8D4 :
[V:4] A,4A,4A,4 | 
[V:1] G3FEDE3DD2- | 
[V:2] d3c_BA_B3AGF | 
[V:3] G12 :
[V:4] _B,3A,G,F,G,3F,E,D, | 
[V:1] D2^C2D8 | 
[V:2] G4A4z2d2 | 
[V:3] G4F8 | 
[V:4] E,4D,8 | 
[V:1] z4z4z2F2 | 
[V:2] ed^cB^c2d^cd4 | 
[V:3] E8D4 :
[V:4] z12 | 
[V:1] E2G3FED^C2DC | 
[V:2] z12 | 
[V:3] E12 :
[V:4] z12 | 
[V:1] D2F4F2F2F2 | 
[V:2] z2d4d2d2d2 | 
[V:3] D8z4 | 
[V:4] z2D,4D,2D,2D,2 | 
[V:1] E3DE2F4ED | 
[V:2] c3BAGF2_B4 | 
[V:3] A4A4D4 :
[V:4] A,,3B,,C,2D,2_B,,3A,, | 
[V:1] F3EC2c3BA2- | 
[V:2] A6F2c4- | 
[V:3] z4A8 :
[V:4] F,,12 | 
[V:1] AGE2F2E2F2ED | 
[V:2] c4F2c2F2c2- | 
[V:3] A4A6G2 | 
[V:4] z2C,2D,2C,2D,2E,2 | 
[V:1] C2D2[M:3/1](3:2:5E4F2G2C2D2 | 
[V:2] c2ABcde4AB | 
[V:3] A4G6F2 :
[V:4] F,4C,3D,E,2F,2 | 
[V:1] (3E2A,2B,2(3C2A,2D2-(3D2^C2B,2 | 
[V:2] c2FGA2G2A4 | 
[V:3] E2D2E2D2E4 :
[V:4] C,2D,2A,,2B,,2A,,4 | 
[V:1] [M:3/1]D12 | 
[V:2] F3DD2A2_B4 | 
[V:3] D12 | 
[V:4] z2A,2_B,2A,3G,G,2- | 
[V:1] z2A2_B2A3GG2- | 
[V:2] A4G2F2G4 | 
[V:3] [M:6/1]z12 :
[V:4] G,2F,2G,2D,2E,4 | 
[V:1] G2F2G2D2E4 | 
[V:2] A4G2d3Bc2 | 
[V:3] z12 | 
[V:4] D,4z4z2A,2 | 
[V:1] D4z4z2A2 | 
[V:2] d2F2G4A4 | 
[V:3] z12 :
[V:4] _B,2A,3G,G,4F,2 | 
[V:1] _B2A3GG4F2 | 
[V:2] z2A2_B2G2A4 | 
[V:3] d8d4 | 
[V:4] G,2F,2G,4D,4 | 
[V:1] G2A3Bc3BG2 | 
[V:2] G2F2A3Bcde2 | 
[V:3] c8c4 :
[V:4] E,2F,3G,A,3G,E,2 | 
[V:1] F2_B3AA4G2 | 
[V:2] A2d4f2e4 | 
[V:3] d4B8 | 
[V:4] F,2G,3F,D,2E,4 | 
[V:1] A12 | 
[V:2] c2d2e2f3ec2 | 
[V:3] A12 :
[V:4] A,,2D,2C,2D,3E,F,2 | 
[V:1] z12 | 
[V:2] d3cA2B4G2 | 
[V:3] d8d4 | 
[V:4] D,2G,2F,2G,3A,B,2 | 
[V:1] z12 | 
[V:2] A3BcBAGF2G2- | 
[V:3] c8c4 :
[V:4] C2F,3G,A,3G,E,2 | 
[V:1] z2A2B2d4cB | 
[V:2] G2^F2G4z2G2 | 
[V:3] d4B8 | 
[V:4] D,4z4G,,4 | 
[V:1] [M:3/1](3:2:6c4B2A4G2F2E4 | 
[V:2] FEe3dd4^c2 | 
[V:3] A12 :
[V:4] A,,3B,,C,2D,2A,,4 | 
[V:1] [M:3/1]D4z2d2d2d2 | 
[V:2] d2D3EF2G2D2 | 
[V:3] d12 | 
[V:4] _B,,12 | 
[V:1] c3B/A/B2E3FG2 | 
[V:2] A2c2B2A2c3B | 
[V:3] e12 :
[V:4] A,,2A,2G,2A,3G,E,2 | 
[V:1] A2B2E2A4^G2 | 
[V:2] A2G2z2e3dB2 | 
[V:3] d4c4B4 | 
[V:4] F,2G,2A,4E,4 | 
[V:1] A4z2A,3B,C2 | 
[V:2] c2F2E2D2F3E | 
[V:3] A12 :
[V:4] A,,2D,2C,2D,3C,A,,2 | 
[V:1] D2E2A,2D4^C2 | 
[V:2] D2C2F2D2E4 | 
[V:3] z12 | 
[V:4] B,,2C,2D,4A,,4 | 
[V:1] D4z2A3GF2 | 
[V:2] D8z4 | 
[V:3] [M:9/1]z12 :
[V:4] z2A,3G,F,2E,2D,2 | 
[V:1] E2D2G3FE2D2 | 
[V:2] z12 | 
[V:3] z12 :
[V:4] G,3F,E,2D,2C,2F,2- | 
[V:1] C2F2E2D2E4 | 
[V:2] A3Bc2d4^c2 | 
[V:3] z12 | 
[V:4] F,E,D,2C,2B,,2A,,4 | 
[V:1] D8z4 | 
[V:2] d4z2A2B2A2 | 
[V:3] D12 :
[V:4] z2A,2B,2A,2D3C | 
[V:1] z2A,2B,2A,2D3E | 
[V:2] d3cdef2z4 | 
[V:3] D12 :
[V:4] A,4z2A,2B,2A,2 | 
[V:1] FGA2[M:3/1](3:2:5D4A2G2^F3E | 
[V:2] z2A2B2A2d4 | 
[V:3] D12 | 
[V:4] [M:3/1](3:2:6D4D2D4C2B,2A,4 | 
[V:1] [M:3/1]G2D2E2D2G3F | 
[V:2] z2B2c2d2G4 | 
[V:3] G12 :
[V:4] [M:3/1]G,4C,2B,,2C,2G,,2- | 
[V:1] [M:3/1](3:2:6D4E2F4E2C4D2 | 
[V:2] B4[M:3/1](3:2:5A2d2c2A4B2 | 
[V:3] G4F8 :
[V:4] G,,A,,B,,C,D,E,F,3E,D,2 | 
[V:1] (3:2:6E4G2F2E4D4^C2 | 
[V:2] (3:2:6c4G2A4G2_B2A4 | 
[V:3] E12 | 
[V:4] [M:3/1](3:2:8C,3D,E,2A,,2C,3B,,G,,2A,,4 | 
[V:1] [M:3/1]D4z2A3GF2 | 
[V:2] [M:3/1]F2D2F3GA3B | 
[V:3] D12 :
[V:4] [M:3/1]z2A,3G,F,3E,D,2 | 
[V:1] E2D2F2E2DCB,2 | 
[V:2] c2FGABc2BA2^G | 
[V:3] z12 :
[V:4] C,2D,4C,2D,2E,2 | 
[V:1] A,4z4z4 | 
[V:2] A2f2e2d2^c3B | 
[V:3] A12 | 
[V:4] F,3E,C,2D,2A,,4 | 
[V:1] F4E2D2^C3B, | 
[V:2] d2A3GF2E4 | 
[V:3] A12 :
[V:4] D,4C,2D,2A,,4 | 
[V:1] D4A2A3GF2 | 
[V:2] F6D2d4 | 
[V:3] D12 :
[V:4] z2A,3G,F,3E,D,2 | 
[V:1] E2A3Bc2BA2^G | 
[V:2] e2f4e2dcB2 | 
[V:3] z12 | 
[V:4] C,2D,4C,2D,2E,2 | 
[V:1] A12 | 
[V:2] A4D3CDEFD | 
[V:3] A12 :
[V:4] F,2A,3G,F,3E,D,2 | 
[V:1] z12 | 
[V:2] E2DEFDE2FD2^C | 
[V:3] A12 :
[V:4] C,2D,4C,2D,2E,2 | 
[V:1] A6G2F4 | 
[V:2] D8A4 | 
[V:3] A12 | 
[V:4] F,12 | 
[V:1] E4G6F2 | 
[V:2] c8B4- | 
[V:3] G12 :
[V:4] C,8G,,4- | 
[V:1] D4z2A2A2D2 | 
[V:2] B4A4d4 | 
[V:3] G4F8 :
[V:4] G,,4D,8 | 
[V:1] A2G3FEDE2A2 | 
[V:2] c2e3d^cB^c4 | 
[V:3] E12 | 
[V:4] A,,2C,3D,E,2A,,4 | 
[V:1] A2D2z2A3GFE | 
[V:2] d2A2A2D2z2A2 | 
[V:3] D12 :
[V:4] A,3G,F,E,F,3E,D,C, | 
[V:1] FE2D/C/B,A,D4^C2 | 
[V:2] A2G3FDEFGE2 | 
[V:3] z12 :
[V:4] D,A,,C,B,,G,,2B,,2A,,4 | 
[V:1] D12 ||  
[V:2] D12 ||  
[V:3] z12 ||  
[V:4] D,12 ||  
[V:1]  [K:C] [K:clef=treble][M:2/1]A8 | 
[V:2]  [K:C] [K:clef=treble-8][M:2/1]d4d4 | 
[V:3]  [K:C] [K:clef=treble-8][M:9/1]z8 :
[V:4]  [K:C] [K:clef=bass][M:2/1]D,8 | 
[V:1] A4A4 | 
[V:2] d4c4- | 
[V:3] x4z4 :
[V:4] F,4F,4 | 
[V:1] G4G4 | 
[V:2] c4c4 | 
[V:3] x8 :
[V:4] E,4E,4 | 
[V:1] F6E2 | 
[V:2] d3cBAA2- | 
[V:3] D8- :
[V:4] D,6C,2 | 
[V:1] D4 :
[V:2] A2G2 :
[V:3] D4 | 
[V:4] B,,4 :
[V:1] CDEF [I:setbarnb 64]| 
[V:2] A2c2- | 
[V:3] E4- :
[V:4] A,,4 | 
[V:1] G2A4^G2 | 
[V:2] c2BAB4 | 
[V:3] E8 :
[V:4] z8 | 
[V:1] A4z2D2 | 
[V:2] z4B4 | 
[V:3] F4G4- :
[V:4] z4G,,4 | 
[V:1] E2F2G4- | 
[V:2] c4d2e2- | 
[V:3] G4G4- :
[V:4] C,4B,,2C,2- | 
[V:1] G2FEG4 | 
[V:2] edd4^c2 | 
[V:3] G8 | 
[V:4] C,2D,2E,4 | 
[V:1] F4E2F2- | 
[V:2] d4z4 | 
[V:3] A8- :
[V:4] D,4C,2D,2- | 
[V:1] F2EDE2A,2 | 
[V:2] D4C2D2- | 
[V:3] A4A4- :
[V:4] D,2F,2E,2F,2- | 
[V:1] z8 | 
[V:2] D2F2E2F2- | 
[V:3] A8 :
[V:4] F,E,D,2C,2D,2- | 
[V:1] z8 | 
[V:2] FED2C2D2- | 
[V:3] A8- :
[V:4] D,2F,2E,2F,2- | 
[V:1] z2F2 :
[V:2] D4 :
[V:3] A4 | 
[V:4] F,E,D,2 :
[V:1] E2F2- [I:setbarnb 73]| 
[V:2] z4 | 
[V:3] z4 :
[V:4] C,2D,2 | 
[V:1] FED4^C2 | 
[V:2] z8 | 
[V:3] x8 :
[V:4] F,2G,2E,4 | 
[V:1] D2F4ED | 
[V:2] d4d4 | 
[V:3] D8- :
[V:4] z8 | 
[V:1] A2B2c2A2- | 
[V:2] d4c4- | 
[V:3] D4A4- :
[V:4] z8 | 
[V:1] A2GFE4 | 
[V:2] c4c4 | 
[V:3] A8 | 
[V:4] z8 | 
[V:1] z2A2A4 | 
[V:2] d4f4- | 
[V:3] A8- :
[V:4] D,4D,4 | 
[V:1] A2A2c4- | 
[V:2] f2ede2c2- | 
[V:3] A4z4 :
[V:4] D,4C,4- | 
[V:1] c2BAG4 | 
[V:2] cde3dcB | 
[V:3] x8 :
[V:4] C,4C,4 | 
[V:1] F6ED | 
[V:2] A4d4- | 
[V:3] D8- :
[V:4] D,4B,,4- | 
[V:1] F3G :
[V:2] d2cB :
[V:3] D4 | 
[V:4] B,,4 :
[V:1] ABc2 [I:setbarnb 82]| 
[V:2] c2e2- | 
[V:3] E4- :
[V:4] A,,4 | 
[V:1] B2A4^G2 | 
[V:2] edc2B2c2- | 
[V:3] E8 :
[V:4] z8 | 
[V:1] A4z4 | 
[V:2] c2BAB4 | 
[V:3] F4G4- :
[V:4] z4E,4- | 
[V:1] G6G2 | 
[V:2] z4B4- | 
[V:3] G4G4- :
[V:4] E,2E,2E,4 | 
[V:1] G4G4 | 
[V:2] B2B2B4 | 
[V:3] G8 | 
[V:4] E,2E,2E,2E,2 | 
[V:1] A4A4 | 
[V:2] d6d2 | 
[V:3] D8- :
[V:4] F,6E,D, | 
[V:1] A4F4- | 
[V:2] d2A2_B4 | 
[V:3] D4D4- :
[V:4] F,4_B,,4 | 
[V:1] F2EDD4 | 
[V:2] A3GA2_B2 | 
[V:3] D8 :
[V:4] z2F,4E,D, | 
[V:1] z4D4- | 
[V:2] A2_B2A2_B2 | 
[V:3] D8- :
[V:4] F,2_B,,2z2B,,2- | 
[V:1] D2CB, :
[V:2] F2G2- :
[V:3] D4 | 
[V:4] B,,2A,,G,, :
[V:1] D4 [I:setbarnb 91]| 
[V:2] GFD2 | 
[V:3] z4 :
[V:4] _B,,4 | 
[V:1] C6B,A, | 
[V:2] A2B2c4- | 
[V:3] x8 :
[V:4] A,,8 | 
[V:1] C2F,2z2C2- | 
[V:2] c2BAc2F2 | 
[V:3] z8 :
[V:4] z2A,3G,A,F, | 
[V:1] C2B,A,C2F,2 | 
[V:2] z2c4BA | 
[V:3] x4z4 :
[V:4] C2F,2z2A,2- | 
[V:1] z2F4ED | 
[V:2] c2F2z2A2- | 
[V:3] x8 | 
[V:4] A,G,A,F,A,2D,2 | 
[V:1] F2E3DD2- | 
[V:2] A2GFA2D2 | 
[V:3] [M:2/1]z8 :
[V:4] z8 | 
[V:1] D2C2D2F2 | 
[V:2] E4D4 | 
[V:3] x4A4- :
[V:4] z4z2D,2- | 
[V:1] E4A,4 | 
[V:2] z4z2A2- | 
[V:3] A8 | 
[V:4] D,2C,2D,2F,2 | 
[V:1] z4z2A2- | 
[V:2] A2G2A2c2 | 
[V:3] B4c4 :
[V:4] E,4A,,4 | 
[V:1] A2G2A2c2 | 
[V:2] B4A4 | 
[V:3] d4e4- :
[V:4] z4z2A,2- | 
[V:1] B4E4 | 
[V:2] z4A4 | 
[V:3] e8 | 
[V:4] A,2G,2A,2C2 | 
[V:1] z8 | 
[V:2] _B6A2 | 
[V:3] d8- :
[V:4] _B,2G,4F,E, | 
[V:1] z2A4A2 | 
[V:2] _B2A3GFE | 
[V:3] d4A4- :
[V:4] D,4z4 | 
[V:1] A4A4 | 
[V:2] D4z2F2 | 
[V:3] A8 | 
[V:4] F,4F,4 | 
[V:1] G4F4 | 
[V:2] G3A_B2A2 | 
[V:3] B4d4 :
[V:4] E,4D,4 | 
[V:1] z8 | 
[V:2] z2A4GF | 
[V:3] c4c4- :
[V:4] F,6E,D, | 
[V:1] z8 | 
[V:2] G4A4 | 
[V:3] c4d4 | 
[V:4] E,4D,4 | 
[V:1] A4A2A2 | 
[V:2] D4z2f2- | 
[V:3] d8- :
[V:4] z8 | 
[V:1] A2B2c3B | 
[V:2] f2f2f2f2 | 
[V:3] d4A4- :
[V:4] z8 | 
[V:1] c2d4^c2 | 
[V:2] e2d2e4 | 
[V:3] A8 | 
[V:4] z8 | 
[V:1] d4z4 | 
[V:2] d6cB | 
[V:3] B4d4 :
[V:4] z4D,4 | 
[V:1] z8 | 
[V:2] A2D2A4 | 
[V:3] c4c4- :
[V:4] F,4F,2E,2- | 
[V:1] z8 | 
[V:2] z2G2A2G2 | 
[V:3] c4d4 | 
[V:4] E,2E,2D,2G,2- | 
[V:1] z2A4G2 | 
[V:2] A4B4 | 
[V:3] d8- :
[V:4] G,2F,2G,4 | 
[V:1] A2B2c4 | 
[V:2] A2d4c2 | 
[V:3] d4z4 :
[V:4] D,4z4 | 
[V:1] B4A2c2- | 
[V:2] d2e2f4 | 
[V:3] x8 | 
[V:4] z8 | 
[V:1] cBAGF2D2 | 
[V:2] e4d4 | 
[V:3] z8 :
[V:4] z8 | 
[V:1] F4E4 | 
[V:2] A4c4 | 
[V:3] x4z4 :
[V:4] D,4C,4 | 
[V:1] F2D2F2E2 | 
[V:2] F3GABc2 | 
[V:3] x8 | 
[V:4] D,4A,,4 | 
[V:1] G2F4ED | 
[V:2] B2A4^G2 | 
[V:3] [M:2/1]D8 :
[V:4] B,,8 | 
[V:1] C4z4 | 
[V:2] A8- | 
[V:3] E4D2E2 :
[V:4] A,,4D,2C,2 | 
[V:1] z4D4 | 
[V:2] A4B4 | 
[V:3] D2E2F2G2- :
[V:4] D,2A,,2D,2G,,2 | 
[V:1] E8 | 
[V:2] c6c2 | 
[V:3] G4A4 :
[V:4] C,6C,2 | 
[V:1] E4 :
[V:2] c4 :
[V:3] G2A2- | 
[V:4] C,4 :
[V:1] F4- [I:setbarnb 124]| 
[V:2] c4 | 
[V:3] A4 :
[V:4] F,,4 | 
[V:1] F2EDF2G2 | 
[V:2] c6d2- | 
[V:3] A4A4- :
[V:4] F,6E,D, | 
[V:1] A6G2 | 
[V:2] d2^cB^c4 | 
[V:3] A4z4 :
[V:4] F,2G,2A,4- | 
[V:1] F4E2c2- | 
[V:2] d4e3d | 
[V:3] D4A4 :
[V:4] A,2B,2C3B, | 
[V:1] cBAGA3G | 
[V:2] e2c3Bc2 | 
[V:3] A4z4 | 
[V:4] A,G,A,3G,F,E, | 
[V:1] FEF3EDC | 
[V:2] A3GA2F2- | 
[V:3] D8- :
[V:4] F,3E,D,C,D,2- | 
[V:1] D4C2B,2- | 
[V:2] F2G2A2B2 | 
[V:3] D4E4 :
[V:4] D,2C,B,,A,,2G,,2 | 
[V:1] B,A,A,4^G,2 | 
[V:2] c4d4 | 
[V:3] E4D4 :
[V:4] A,,4B,,4 | 
[V:1] A,2C4B,A, | 
[V:2] c2A2e4- | 
[V:3] E8- :
[V:4] A,,3B,,C,D,E,2- | 
[V:1] B,4 :
[V:2] e2de :
[V:3] E4 | 
[V:4] E,F,G,2 :
[V:1] z4 [I:setbarnb 133]| 
[V:2] c2d2 | 
[V:3] F4 :
[V:4] A,2D,2 | 
[V:1] z2E2E2E2 | 
[V:2] B2c2G3A | 
[V:3] G8 :
[V:4] E,2C,3D,E,F, | 
[V:1] D2E4D2 | 
[V:2] B2c2G3A | 
[V:3] G8 :
[V:4] G,2C,2z2G,,2- | 
[V:1] G4F2G2 | 
[V:2] Bcd2z2d2- | 
[V:3] D4D4- :
[V:4] G,,A,,B,,C,D,2G,,2 | 
[V:1] A6GF | 
[V:2] def4ed | 
[V:3] D8 | 
[V:4] z2D,3E,F,G, | 
[V:1] E2F2G4- | 
[V:2] c2d2B2c2 | 
[V:3] z8 :
[V:4] A,2D,2E,2C,2- | 
[V:1] G2FED2E2 | 
[V:2] G3AB2c2 | 
[V:3] x4z4 :
[V:4] C,D,E,F,G,2C,2 | 
[V:1] FEDCB,A,F2- | 
[V:2] F2G3FD2 | 
[V:3] x8 :
[V:4] D,2G,,3A,,B,,C, | 
[V:1] FED4^C2 | 
[V:2] F2G2E4 | 
[V:3] z8 :
[V:4] D,2G,,2A,,4 | 
[V:1] D4- :
[V:2] D4- :
[V:3] x4 | 
[V:4] D,4- :
[V:1] D4- :
[V:2] D4- :
[V:3] z4 :
[V:4] D,4- :
[V:1] D8 |]  
[V:2] D8 |]  
[V:3] x8 |]  
[V:4] D,8 |]  



